X: 6722
T: Chair At Western Drive, The
R: polka
M: 2/4
K: Gmajor
|:GB d>e|dB GE|A2 A>B|AG ED|
GB d>e|dB GE|A2 A>B|AG G2:|
|:d g2 a|g>e dB|A2 A>B|cB AG|
d g2 a|g>e dB|A2 A>B|GG G2:|

